dist/svgs/unicons/line/coffee.svg

<svg xmlns="http://www.w3.org/2000/svg" viewBox="0 0 24 24"><path d="M9 17h4a5 5 0 005-5v-1h1a3 3 0 000-6h-1V4a1 1 0 00-1-1H5a1 1 0 00-1 1v8a5 5 0 005 5zm9-10h1a1 1 0 010 2h-1zM6 5h10v7a3 3 0 01-3 3H9a3 3 0 01-3-3zm15 14H3a1 1 0 000 2h18a1 1 0 000-2z"/></svg>

<svg xmlns="http://www.w3.org/2000/svg" viewBox="0 0 24 24"><path d="M9,17h4a5,5,0,0,0,5-5V11h1a3,3,0,0,0,0-6H18V4a1,1,0,0,0-1-1H5A1,1,0,0,0,4,4v8A5,5,0,0,0,9,17ZM18,7h1a1,1,0,0,1,0,2H18ZM6,5H16v7a3,3,0,0,1-3,3H9a3,3,0,0,1-3-3ZM21,19H3a1,1,0,0,0,0,2H21a1,1,0,0,0,0-2Z"/></svg>
